img/color-sel.svg

<svg width="34" height="34" viewBox="0 0 34 34" fill="none" xmlns="http://www.w3.org/2000/svg">
<circle cx="17" cy="17" r="17" fill="#7BAFE4"/>
<g clip-path="url(#clip0)">
<path d="M23.4739 12.6659L23.099 12.3439C22.4767 11.8092 21.5417 11.8688 20.9923 12.478L14.7212 19.4314L12.8283 17.801C12.2067 17.2657 11.2715 17.3241 10.7215 17.9327L10.39 18.2994C10.1212 18.5967 9.98167 18.9888 10.0019 19.3893C10.0224 19.7896 10.201 20.1654 10.4987 20.4341L13.9686 23.6116C14.269 23.8937 14.6716 24.0409 15.0831 24.019C15.4946 23.9972 15.8794 23.8082 16.1482 23.4958L23.6343 14.7975C23.8958 14.4936 24.0259 14.0983 23.9957 13.6986C23.9656 13.2986 23.7779 12.9272 23.4739 12.6659Z" fill="white"/>
</g>
<defs>
<clipPath id="clip0">
<rect width="14" height="14" fill="white" transform="translate(10 11)"/>
</clipPath>
</defs>
</svg>

<svg width="34" height="34" fill="none" xmlns="http://www.w3.org/2000/svg"><circle cx="17" cy="17" r="17" fill="#7BAFE4"/><g clip-path="url(#clip0)"><path d="M23.474 12.666l-.375-.322a1.51 1.51 0 00-2.107.134l-6.27 6.953-1.894-1.63a1.51 1.51 0 00-2.106.132l-.332.366a1.511 1.511 0 00.109 2.135l3.47 3.178a1.51 1.51 0 002.18-.116l7.485-8.698a1.51 1.51 0 00-.16-2.132z" fill="#fff"/></g><defs><clipPath id="clip0"><path fill="#fff" transform="translate(10 11)" d="M0 0h14v14H0z"/></clipPath></defs></svg>
